app/assets/images/Contenido/Estrella.svg

<svg fill="none" height="53" viewBox="0 0 56 53" width="56" xmlns="http://www.w3.org/2000/svg"><path d="m28 44.3859 13.5796 8.1335c2.4869 1.4906 5.53-.7129 4.8756-3.4997l-3.5994-15.2948 12.0089-10.3046c2.1924-1.8795 1.0144-5.444-1.8652-5.6708l-15.8046-1.3286-6.1845-14.45233c-1.1125-2.624759-4.9083-2.624759-6.0208 0l-6.1845 14.41993-15.80464 1.3286c-2.879528.2268-4.05752 3.7913-1.86515 5.6708l12.00899 10.3046-3.59946 15.2948c-.65443 2.7868 2.38866 4.9903 4.87556 3.4997z" fill="#ffd233"/></svg>

<svg width="56" height="53" viewBox="0 0 56 53" fill="none" xmlns="http://www.w3.org/2000/svg">
<path d="M28 44.3859L41.5796 52.5194C44.0665 54.01 47.1096 51.8065 46.4552 49.0197L42.8558 33.7249L54.8647 23.4203C57.0571 21.5408 55.8791 17.9763 52.9995 17.7495L37.1949 16.4209L31.0104 1.96857C29.8979 -0.656189 26.1021 -0.656189 24.9896 1.96857L18.8051 16.3885L3.00046 17.7171C0.120932 17.9439 -1.05706 21.5084 1.13531 23.3879L13.1443 33.6925L9.54484 48.9873C8.89041 51.7741 11.9335 53.9776 14.4204 52.487L28 44.3859Z" fill="#FFD233"/>
</svg>
